cssgg/math-divide.svg

<svg
  width="24"
  height="24"
  viewBox="0 0 24 24"
  fill="none"
  xmlns="http://www.w3.org/2000/svg"
>
  <path
    d="M14 7C14 8.10457 13.1046 9 12 9C10.8954 9 10 8.10457 10 7C10 5.89543 10.8954 5 12 5C13.1046 5 14 5.89543 14 7Z"
    fill="currentColor"
  />
  <path
    d="M3 12C3 11.4477 3.44772 11 4 11H20C20.5523 11 21 11.4477 21 12C21 12.5523 20.5523 13 20 13H4C3.44772 13 3 12.5523 3 12Z"
    fill="currentColor"
  />
  <path
    d="M12 19C13.1046 19 14 18.1046 14 17C14 15.8954 13.1046 15 12 15C10.8954 15 10 15.8954 10 17C10 18.1046 10.8954 19 12 19Z"
    fill="currentColor"
  />
</svg>

<svg viewBox="0 0 24 24" xmlns="http://www.w3.org/2000/svg"><g><path d="M14 7c0 1.1-.9 2-2 2 -1.11 0-2-.9-2-2 0-1.11.89-2 2-2 1.1 0 2 .89 2 2Z"/><path d="M3 12c0-.56.44-1 1-1h16c.55 0 1 .44 1 1 0 .55-.45 1-1 1H4c-.56 0-1-.45-1-1Z"/><path d="M12 19c1.1 0 2-.9 2-2 0-1.11-.9-2-2-2 -1.11 0-2 .89-2 2 0 1.1.89 2 2 2Z"/></g></svg>
